svgs/duotone/arrow-up-from-dotted-line.svg

<svg xmlns="http://www.w3.org/2000/svg" viewBox="0 0 448 512"><!-- Font Awesome Pro 6.0.0-alpha2 by @fontawesome - https://fontawesome.com License - https://fontawesome.com/license (Commercial License) --><defs><style>.fa-secondary{opacity:.4}</style></defs><path d="M32 416C14.326 416 0 430.328 0 448S14.326 480 32 480S64 465.672 64 448S49.674 416 32 416ZM128 416C110.326 416 96 430.328 96 448S110.326 480 128 480S160 465.672 160 448S145.674 416 128 416ZM224 416C206.326 416 192 430.328 192 448S206.326 480 224 480S256 465.672 256 448S241.674 416 224 416ZM320 416C302.326 416 288 430.328 288 448S302.326 480 320 480S352 465.672 352 448S337.674 416 320 416ZM416 416C398.326 416 384 430.328 384 448S398.326 480 416 480S448 465.672 448 448S433.674 416 416 416Z" class="fa-secondary"/><path d="M374.509 214.625C368.259 220.875 360.072 224 351.884 224S335.509 220.875 329.259 214.625L255.884 141.25V320C255.884 337.688 241.572 352 223.884 352S191.884 337.688 191.884 320V141.25L118.509 214.625C106.009 227.125 85.759 227.125 73.259 214.625S60.759 181.875 73.259 169.375L201.259 41.375C213.759 28.875 234.009 28.875 246.509 41.375L374.509 169.375C387.009 181.875 387.009 202.125 374.509 214.625Z" class="fa-primary"/></svg>

<svg xmlns="http://www.w3.org/2000/svg" viewBox="0 0 448 512"><!--! Font Awesome Pro 6.3.0 by @fontawesome - https://fontawesome.com License - https://fontawesome.com/license (Commercial License) Copyright 2023 Fonticons, Inc. --><defs><style>.fa-secondary{opacity:.4}</style></defs><path class="fa-primary" d="M374.6 214.6C368.4 220.9 360.2 224 352 224s-16.38-3.125-22.62-9.375L256 141.3V320c0 17.69-14.31 32-32 32s-32-14.31-32-32V141.3L118.6 214.6c-12.5 12.5-32.75 12.5-45.25 0s-12.5-32.75 0-45.25l128-128c12.5-12.5 32.75-12.5 45.25 0l128 128C387.1 181.9 387.1 202.1 374.6 214.6z"/><path class="fa-secondary" d="M32 416c-17.67 0-32 14.33-32 32s14.33 32 32 32s32-14.33 32-32S49.67 416 32 416zM128 416c-17.67 0-32 14.33-32 32s14.33 32 32 32s32-14.33 32-32S145.7 416 128 416zM224 416c-17.67 0-32 14.33-32 32s14.33 32 32 32s32-14.33 32-32S241.7 416 224 416zM320 416c-17.67 0-32 14.33-32 32s14.33 32 32 32s32-14.33 32-32S337.7 416 320 416zM416 416c-17.67 0-32 14.33-32 32s14.33 32 32 32s32-14.33 32-32S433.7 416 416 416z"/></svg>
